X:1
T:Anima mea liquefacta est
T:Lyonel Power
T:Anima mea liquefacta est
C:Lyonel Power
%%score 1 2 3
L:1/8
Q:1/4=100
M:3/4
K:F
V:1 treble nm="Cantus" snm="C"
V:2 treble-8 nm="Contratenor" snm="CT"
V:3 treble-8 nm="Tenor" snm="T"
V:1
 z6 | F3 F F2 | FG A3 F | AB c3 A | A4 G2 | F2 D3 C | C4 z2 | c4 c2 | A2 d4 | c3 =B GA | %10
w: |A- ni- ma|me- a _ _|li- que- * *|fac- *|ta _ _|est,|ut di-|lec- tus|lo- * * *|
 =Bc dc/d/ ec | c3 =B/c/ BA | c6 | z2 z2 G2 | A2 =B4 | c3 A =Bc | A2 GG- G/F/E/D/ | C2 G3 F | %18
w: |cu- tus _ _ _|est;|quae-|si- vi|et _ non _|in- ve- ni _ _ _ _|il- * *|
 F4 ED | F6 | z6 | A2 A2 A2 | G2 G2 A2 | =Bc d4 | c3 =B/c/ BA |"^Instr." c2 z2 G2 | c3 d cA | %27
w: |lum;||vo- cam et|non res- *|pon- * *|dit _ _ mi- *|hi. *||
 G2 A c2 =B | G2 z2 E2 | G3 F ED | C2 z2 G2 | A c2 =B GA | =Bc d3 c | _B2 A3 G | G4 ^F2 | %35
w: |||||* * In- ve-|ne- * *|runt _|
 G2 z2 G2 | G3 E E2 | G3 F D2 | C2 z2 z2 | FG A3 F | AB c2 BA | A3 F G2 | A6 | z6 | z6 | c3 A Bc | %46
w: me cus-|to- * des|_ _ _||ci- * vi- *||* ta- *|tis|||per- * * *|
 A2 F G2 A | FC F E2 D | FE/F/ GF D2 | C2 z2 c2 | d2 c2 A2 | G c2 B A>F | ^FE/F/ G>E E2 | %53
w: * cus- se- *||runt _ _ _ _ _|me et|vul- * ne-|ra- * ve- * *|* * * * * runt|
 !fermata!F6 ||[M:2/2] F8 | A2 =B2 c2 B2 | d3 c c=B G2 | z2 F2 G2 =B2 | A3 G =B2 cd- | %59
w: me.|Tu-|le- * runt _|pal- li- um _ _|me- * *||
 dBGA c =B2 A | c4 z4 |[M:5/2] A4 A2 F4 B4 A3 F G2 | A4 z2 c2 d2 c2 A4 F2 G2- | %63
w: |um|cus- to- des mu- ro- * *|rum. * * * * * *|
 GF G3 F D2 C2 z2 F2 EF GE E2 | !fermata!F4 z4 A3 B cB G4 A2 | B3 A G4 A2 c3 =B/c/BA c4 | %66
w: |* Fi- * li- * ae Je-|ru- sa- * * * * * * lem _|
 z4 e4 d3 c c=BcA G4 | c2 d2 BG G2 cBAG G2 EG A>^F F2 |[M:1/2] !fermata!G4 ||[M:3/4] G4 E2 | %70
w: nun- ci- * a- * te _ _|di- * * * lec- * * * * * * * * * *|to,|Qui- *|
 G3 F D2 | C2 z2 G2 | A2 c3 A | Bc d3 c | A2 GB AF | FE/F/ GE ED | F2 z2 A2 | c2 =B>c dB | %78
w: |a a-|mo- re _|lan- * * *|gue- * * * *||o. Al-|le- * * * *|
 c2 z2 c2 | d2 cA _Bc | A2 GG- G/F/E/D/ | CD EF GA | F4 ED | F6 |] %84
w: ||||lu- * *|ia.|
V:2
 f4 ed | cB/c/ dc A2 | c4 d2 | d2 c4 | F4 c2- | c2 G4 | gf/g/ a3 g | e2 a2 ge | d4 d2 | B2 c4 | %10
 G2 z2 g2 | a3 g f2 | g4 a2- | a2 g2 e2 | f2 g4 | z2 z2 c2 | c2 G4 | g2 e2 d2 | c4 =B2 | c2 d3 c | %20
 A2 cB AG | F6 | c4 F2 | G4 G2 | z2 z2 f2 | g4 e2 | e2 c2 z2 | e2 fe cd | ef g3 e | c2 G2 g2 | %30
 g2 ag e2 | e2 c2 z2 | G4 d2- | d2 c2 F2 | B2 A4 | G6 | z2 z2 c2 | c2 B4 | c6 | F6 | c4 z2 | %41
 f3 d d2 | e2 z2 a2- | ag ef dc- | c f2 d e2 | f2 c d2 c- | c f2 d- d/c/c | cA G2 z2 | c4 f2 | %49
 g a2 g e2 | f3 c f2 | e2 cd cA- | Ac d=B B2 | !fermata!c6 ||[M:2/2] z8 | z8 | z8 | z8 | z8 | z8 | %60
 z8 |[M:5/2] z20 | z20 | z20 | z16 z4 | z20 | z20 | z20 |[M:1/2] z4 ||[M:3/4] z6 | d4 g2- | %71
 g2 ec de | f2 a4 | g3 f d2 | c2 d2 cA | Ac =B4 | c2 F4 | A2 G4 | z2 c2 AF- | FB A2 G2 | z2 z2 g2 | %81
 g2 ec d2 | cB/c/ d2 =B2 | c6 |] %84
V:3
 F6- | F6- | F6- | F6 | F4 c2- | c2 =B4 | c6 | z2 z2 c2 | d4 f2- | f2 e4 | g4 e2 | f2 d4 | c6 | %13
 c6 | z2 z2 G2 | A4 c2- | c2 =B4 | c4 B2 | A2 G4 | F6- | F6 | f6 | e4 f2 | d4 =B2 | c2 d4 | c6- | %26
 c6- | c6- | c6 | z2 z2 G2 | c6- | c6 | d4 G2- | G2 c4 | G2 c4 | d4 e2 | e2 g4 | e2 d2 g2- | %38
 g2 a2 ef- | fd c4 | F4 d2- | d2 B4 | A6 | c3 A Bc | A2 F2 G2 | F4 z2 | F4 E2 | F2 G4 | F4 z2 | %49
 c6 | F6 | c4 F2 | A2 G4 | !fermata!F6 ||[M:2/2] f6 d2 | f2 g2 e4 | d2 ^f4 g2 | a4 g3 e | %58
 f2 g4 d2 | f2 e2 d4 | c4 z4 |[M:5/2] f8 d6 c2 B4 | A2 c4 F4 c2 d2 f4 e2 | %63
 c4 z2 B2 c2 A2 F2 A2 G4 | !fermata!F4 z4 c6 e4 f2 | g3 f d2 c4 e2 d4 c4- | %66
 c4 g4 f2 e3 c c3 =B c2 | A2 G4 B2 c3 G B3 c A4 |[M:1/2] !fermata!G4 ||[M:3/4] c4 G2- | G2 B4 | %71
 c3 A BA | F6 | G6 | c2 B2 F2 | A2 G4 | F4 c2- | c2 d4 | c6 | f3 c d2 | c3 B B2 | c4 B2 | A2 G4 | %83
 F6 |] %84

